X: 1
T: String Quartet in E\b Major opus 50 no 3 mvt 1
C: Franz Joseph Haydn
%%abc-version 2.0
%%abcx-abcm2ps-target-version 5.9.1 (29 Sep 2008)
%%abc-creator hum2abc beta
%%abcx-conversion-date 2021/02/14 14:38:15
%%abc-copyright Copyright (c) 1994, 2000 Center for Computer Assisted Research in the Humanities
%%abc-edited-by Frances Bennion
%%abcx-initial-encoding-date 1997/04/15
%%gracespace 0 6 6
%%humdrum-veritas 1470085904
%%humdrum-veritas-data 1451418009
%%linebreak <none>
%%barnumbers 0
L: 1/8
M: 6/8
N: Derived from op50n3-01.krn
Q: "Allegro con brio"
%%staves [1 2 3 4]
V: 1
V: 2
V: 3 clef=alto
V: 4 clef=bass
K: Eb
[V:1]z4 zB, [I:setbarnb1]|
[V:2]z4 zz |
[V:3]z4 zz |
[V:4]z4 zz |
[V:1]EEE/D//E// FzB, |
[V:2][G,2E2]z D2z |
[V:3]B,2z B,2z |
[V:4]E,2z B,,2z |
[V:1]FFF/E//F// GzG/F//G// |
[V:2]D2z E2z |
[V:3]B,2z B,2z |
[V:4]B,,2z E,2z |
[V:1]AzA/G//A// Bze |
[V:2]D2z B,2z |
[V:3]F2z E2z |
[V:4]F,2z G,2z |
[V:1]BBB Bze |
[V:2]B,B,B, B,zE |
[V:3]EEE Ez2 |
[V:4]G,G,G, G,z2 |
[V:1]gba fdB |
[V:2]GBA FDB, |
[V:3]z6 |
[V:4]z6 |
[V:1]=A/B/c/B/c/d/ eee |
[V:2]=A,/B,/C/B,/C/D/ EEE |
[V:3]z4 zE |
[V:4]z4 zE, |
[V:1]gba fdB |
[V:2]GBA FDB, |
[V:3]GBA FDB, |
[V:4]G,B,A, F,D,B,, |
[V:1]=A/B/c/B/c/d/ ez2 |
[V:2]=A,/B,/C/B,/C/D/ E2E |
[V:3]=A,/B,/C/B,/C/D/ E2E, |
[V:4]=A,,/B,,/C,/B,,/C,/D,/ E,E,,E,, |
[V:1]z4 zc' |
[V:2]D/E/F/E/F/G/ AAa |
[V:3]E,2_D, C,2z |
[V:4]E,,6- |
[V:1]fff/e//f// ggz |
[V:2]ddd/c//d// eeE |
[V:3]A,/G,/A,/F,/B,/A,/ G,G,z |
[V:4]E,,6- |
[V:1]z4 zc' |
[V:2]D/E/F/E/F/G/ AAa |
[V:3]E,2_D, C,2z |
[V:4]E,,6- |
[V:1]fff/e//f// ggb |
[V:2]ddd/c//d// eez |
[V:3]A,/G,/A,/F,/B,/A,/ G,G,z |
[V:4]E,,4- E,,z |
[V:1]ggb ffb |
[V:2]B2z B2z |
[V:3]E2z D2z |
[V:4]z6 |
[V:1]eee/d//e// d2b/=a//b// |
[V:2]=A,/B,/C/D/E/C/ DFz |
[V:3]F,/G,/=A,/B,/C/A,/ B,B,z |
[V:4]z6 |
[V:1]ggb/=a//b// ffb/a//b// |
[V:2]BBz BBz |
[V:3]B,B,z FFz |
[V:4]E,E,z D,D,z |
[V:1]f=ee e2d'/c'/ |
[V:2]zBB B2z |
[V:3]zGG G2z |
[V:4]zC,C, C,2z |
[V:1]b/=a/g/f/=e/f/ _e2F |
[V:2]zcc c2z |
[V:3]zFF F2z |
[V:4]z=A,,A,, A,,2z |
[V:1]BBB/=A//B// czF |
[V:2]z6 |
[V:3]z2B,2 =A,F, |
[V:4]z6 |
[V:1]ddd/c//d// eze/d//e// |
[V:2]z2B2 =Ac- |
[V:3]B,zB,/=A,//B,// CzC/B,//C// |
[V:4]z6 |
[V:1]fzf/e//f// g3- |
[V:2]cBd2 cB |
[V:3]DzB,2 CC |
[V:4]z2B,, E,E,E,/D,//E,// |
[V:1]gfe dfb |
[V:2]=A3 B3- |
[V:3]C3 D3 |
[V:4]F,6- |
[V:1]=e3 _e3- |
[V:2]Bc_d cB=A |
[V:3]_DCB, =A,B,C |
[V:4]F,6- |
[V:1]ed_d2 cB |
[V:2]B2F =E3 |
[V:3]B,4 C_D |
[V:4]F,6- |
[V:1]=A/f/=e/f/e/f/ e/f/g/f/e/f/ |
[V:2]F2z4 |
[V:3]C2z4 |
[V:4]F,2z4 |
[V:1]=e/f/_e/c/=A/F/ c/A/F/E/C/=A,/ |
[V:2]z[CF][FC] z[EC][EC] |
[V:3]zF,F, zFF |
[V:4]z=A,,A,, zA,,A,, |
[V:1]B,/F/D/B/F/d/ B/f/d/b/=a/g/ |
[V:2]z[B,D][B,D] z[FD][FD] |
[V:3]zFF zDD |
[V:4]zB,,B,, zB,,B,, |
[V:1]=e/f/_e/c/=A/F/ c/A/F/E/C/=A,/ |
[V:2]z[CF][FC] z[EC][EC] |
[V:3]zF,F, zFF |
[V:4]z=A,,A,, zA,,A,, |
[V:1]B,/F/D/B/F/d/ B/f/d/b/a/f/ |
[V:2]zDD zBB |
[V:3]zFF zFF |
[V:4]zB,,B,, zD,D, |
[V:1]^f/g/f/g/f/g/ =a/b/a/b/a/b/ |
[V:2]B2z G2z |
[V:3]B,2z E2z |
[V:4]E,2z4 |
[V:1]=e/f/e/f/e/f/ =a/b/a/b/a/b/ |
[V:2]B2z F2z |
[V:3]B,2z D2z |
[V:4]D,2z4 |
[V:1]^f/<g/=a/<b/f/<g/ a/<b/f/<g/a//b3// |
[V:2]G2z4 |
[V:3]B,2z4 |
[V:4]E,2z4 |
[V:1]^f/<g/=e/<=f/d/<_e/ ^c/<d/=B/<=c/e//c3// |
[V:2]C6 |
[V:3]G,6 |
[V:4]E,6 |
[V:1]B3 c3 |
[V:2]DFD EC=A, |
[V:3]B,DB, =A,CE |
[V:4]F,F,F, F,F,F, |
[V:1]Bz/b/b/b/ b=e/b/b/b/ |
[V:2]B,2z =e>ee/e/ |
[V:3]D2z _d>dd/d/ |
[V:4]G,2z G>GG/G/ |
[V:1]bf/b/b/b/ bg/b/b/b/ |
[V:2]f>ff/f <gg/g/g/ |
[V:3]d>dd/d <_dd/d/d/ |
[V:4]F>FF/F <=EE/E/E/ |
[V:1]b/f/d'/c'/b/=a/ b/a/g/f/e/d/ |
[V:2]f2z4 |
[V:3]d2z4 |
[V:4]F2z4 |
[V:1]ccc/=B//c// fz2 |
[V:2]=AAA Az2 |
[V:3]FFF Fz2 |
[V:4]EEE Ez2 |
[V:1]ccc/=B//c// fzc/B//c// |
[V:2]=AAA AzA |
[V:3]FFF FzF |
[V:4]EEE EzE |
[V:1]fzc/=B//c// fz_B/=A//B// |
[V:2]=AzA BzD |
[V:3]FzF FzG |
[V:4]EzE DzG, |
[V:1]eec/B//c// Bdf |
[V:2]GGE/D//E// Dzf |
[V:3]CC=A Bzd |
[V:4]E,E,F, B,,2z |
[V:1]fg=a bd'f' |
[V:2]eee/d//e// dzd |
[V:3]ccc/B//c// BzF |
[V:4]F,2z B,,2z |
[V:1]fg=a bzf |
[V:2]ccc/B//c// BzF |
[V:3]EEE/D//E// DzD |
[V:4]F,2z B,,/D,/F,/B,/D/B,/ |
[V:1]fg=a bd'f' |
[V:2]EEE/D//E// DzD |
[V:3]CCC/B,//C// B,zF, |
[V:4]F,2z B,2z |
[V:1]f'g'=a' b'z2 |
[V:2]CCC/B,//C// B,z2 |
[V:3]E,E,E,/D,//E,// D,z2 |
[V:4]F,,2z B,,zB,, |
[V:1]Bcd ezB |
[V:2]DEF GzB |
[V:3]z6 |
[V:4]A,A,A,/G,//A,// G,z2 |
[V:1]aaa/g//a// gz2 |
[V:2]fff/e//f// ez2 |
[V:3]z4 zG, |
[V:4]B,CD Ez2 |
[V:1]g=a=b c'zc'//b//c'//d'// |
[V:2]=Bcd ez2 |
[V:3]FFF/E//F// Ez2 |
[V:4]z6 |
[V:1]e'c'^f gzc |
[V:2]^F2e/c/ =Bz2 |
[V:3]CCC DzC |
[V:4]A,A,A, G,z2 |
[V:1]=egf d=BG |
[V:2]z6 |
[V:3]=EGF D=B,G, |
[V:4]z6 |
[V:1]^F/G/=A/G/A/=B/ ccc |
[V:2]z4 zc |
[V:3]^F,/G,/=A,/G,/A,/=B,/ CCC |
[V:4]z4 zC, |
[V:1]=egf d=BG |
[V:2]=egf d=BG |
[V:3]=EGF D=B,G, |
[V:4]=E,G,F, D,=B,,G,, |
[V:1]^F/G/=A/G/A/=B/ c2c |
[V:2]^F/G/=A/G/A/=B/ c=EE |
[V:3]^F,/G,/=A,/G,/A,/=B,/ C=EG |
[V:4]^F,,/G,,/=A,,/G,,/A,,/=B,,/ [C,3-C,,3] |
[V:1]=B/c/d/c/d/=e/ fff |
[V:2]=E2B =AGF |
[V:3]G2>F2 G=A |
[V:4][C,6C,,6-] |
[V:1]^f/g/=a/g/c'/b/ aaa |
[V:2]=E2>F2 =AA |
[V:3]B2G =A2z |
[V:4][C,3C,,3] F,,3 |
[V:1]^g/=a/b/a/=g/=e/ f2z |
[V:2]=A4 z2 |
[V:3]z2=A, DDD/^C//D// |
[V:4]^C,3 D,2D- |
[V:1]z6 |
[V:2]z4 zD |
[V:3]=Ez=A, ^FFF/E//F// |
[V:4]D^C=A, =C/E/D/C/B,/A,/ |
[V:1]z2g2 ^fd |
[V:2]GGG/^F//G// =AzD |
[V:3]G2z4 |
[V:4]B,2z4 |
[V:1]f/a/g/f/e/d/ ez2 |
[V:2]=BBB/=A//B// cz2 |
[V:3]z4 zc- |
[V:4]z2G, CCC/=B,//C// |
[V:1]z4 zc |
[V:2]z6 |
[V:3]c=BG _B/_d/c/B/A/G/ |
[V:4]D=EE EEE/D//E// |
[V:1]fff/=e//f// gzc |
[V:2]z6 |
[V:3]AzF2 =EC |
[V:4]F2z4 |
[V:1]aaa/g//a// bzb/a//b// |
[V:2]z2f2 =eg- |
[V:3]FzF/=E//F// GzG/F//G// |
[V:4]z6 |
[V:1]c'4 bb- |
[V:2]gfe dzd/c//d// |
[V:3]A2=A B2z |
[V:4]z2F, B,B,B,/A,//B,// |
[V:1]b=aa _a/c'/b/a/g/f/ |
[V:2]eze/d//e// fzB/A/ |
[V:3]z4 zB, |
[V:4]CzC/B,//C// DzD/C//D// |
[V:1]g2z4 |
[V:2]G2z4 |
[V:3]EEE/D//E// FzB, |
[V:4]EzE,2 D,B,, |
[V:1]z6 |
[V:2]z6 |
[V:3]FFF/E//F// GzG/F//G// |
[V:4]A,/C/B,/A,/G,/F,/ E,/F,/E,/_D,/C,/B,,/ |
[V:1]z6 |
[V:2]z2E eee |
[V:3]AzA/G//A// BzB/A//B// |
[V:4]C,/_D,/E,/C,/B,,/A,,/ G,,/A,,/B,,/G,,/F,,/E,,/ |
[V:1]z2E eee |
[V:2]c/_d/e/d/c/B/ =A/B/c/A/G/F/ |
[V:3]c2z3 =A, |
[V:4]A,,2_G,, F,,2z |
[V:1]_d/e/f/e/d/c/ =B/c/=d/B/=A/G/ |
[V:2]_dzF fff |
[V:3]B,2A, G,2z |
[V:4]z4 z=B,, |
[V:1]c2z3 c |
[V:2]e/f/g/f/e/d/ c/d/e/d/c/B/ |
[V:3]z2G ccc |
[V:4]C,2D, E,2=E, |
[V:1]fff/=e//f// aaa |
[V:2]A2z4 |
[V:3]A/B/c/B/A/G/ F/G/A/G/F/E/ |
[V:4]F,/G,/A,/G,/F,/E,/ D,/E,/F,/E,/D,/C,/ |
[V:1]^f/g/f/g/f/g/ =e/=f/e/f/e/f/ |
[V:2]DGG zGG |
[V:3]D2z =B,3 |
[V:4]=B,,2z4 |
[V:1]d/e/d/e/d/e/ c/=B/c/B/c/B/ |
[V:2]zGG zGG |
[V:3]C3 D3 |
[V:4]z6 |
[V:1]d/c/d/c/d/c/ e/d/e/d/e/d/ |
[V:2]zGG zGG |
[V:3]E3 =B,3 |
[V:4]z6 |
[V:1]fee gff |
[V:2]zGG z=BB |
[V:3]C3 D3 |
[V:4]z6 |
[V:1]a3 g2c' |
[V:2]zcc c2z |
[V:3]E4- Ez |
[V:4]z6 |
[V:1]ddd/c//d// f>zd/c//d// |
[V:2]=B,B,B, B,z2 |
[V:3]A,A,A, A,z2 |
[V:4]F,F,F, F,z2 |
[V:1]ezc/=B//c// ezC/=B,//C// |
[V:2]Cz2 Cz2 |
[V:3]=A,z2 A,z2 |
[V:4]^F,z2 F,z2 |
[V:1]G,/E/C/G/E/c/ G/e/c/g/e/c'/ |
[V:2]E2z4 |
[V:3]C2z4 |
[V:4]G,2z4 |
[V:1]gec GEC |
[V:2]z2>G2 EC |
[V:3]z2>G2 EC |
[V:4]z2>G,2 E,C, |
[V:1]G,ee zdd |
[V:2]G,cc z=BB |
[V:3]G,2z G2z |
[V:4]G,,2z G,2z |
[V:1]z_dd d2z |
[V:2]zGG G2A |
[V:3]zB,B, B,2A, |
[V:4]E,,E,,E,, E,,2z |
[V:1]z6 |
[V:2]ce_d BGE |
[V:3]CE_D B,G,E, |
[V:4]z6 |
[V:1]z4 zc |
[V:2]D/E/F/E/F/G/ AAz |
[V:3]D,/E,/F,/E,/F,/G,/ A,A,z |
[V:4]z6 |
[V:1]fac' bg=e |
[V:2][F3C3] [_D3-=E3] |
[V:3][A,3F3] [B,3-G3] |
[V:4]F,,6- |
[V:1]d/c/=B/c/d/=e/ ffc'/b/ |
[V:2][_DE][=ED][DE] [CF]za/g/ |
[V:3][B,G][B,G][B,G] [F2A,2]z |
[V:4]F,,4- F,,z |
[V:1]aaa/g/ fff/e/ |
[V:2]ff2 <z2A/G/ |
[V:3]z2c/B/ AAF/G/ |
[V:4]z6 |
[V:1]dd2 <z2e |
[V:2]FF2 <z2E |
[V:3]AAz4 |
[V:4]B,B,z4 |
[V:1]gba fdB |
[V:2]GBA FDB, |
[V:3]z6 |
[V:4]z6 |
[V:1]=A/B/c/B/c/d/ egb |
[V:2]=A,/B,/C/B,/C/D/ EGB |
[V:3]z4 zE |
[V:4]z4 zE, |
[V:1]bbb bbb |
[V:2]BBB BBB |
[V:3]GBA FDB, |
[V:4]G,B,A, F,D,B,, |
[V:1]bbb bbb |
[V:2]BBB BBB |
[V:3]FAG EB,G, |
[V:4]F,A,G, E,B,,G,, |
[V:1]bag gfe |
[V:2]c6 |
[V:3]A,C=E F3- |
[V:4]A,,C,=E, F,A,=A, |
[V:1]B/b/=a/b/a/b/ a/b/a/b/a/b/ |
[V:2]B2z4 |
[V:3]F2z4 |
[V:4]B,2z4 |
[V:1]=a/b/_a/f/d/B/ A/F/D/B,/A,/B,/ |
[V:2]z[FB,][FB,] z[AB,][AB,] |
[V:3]zFF zFF |
[V:4]zD,D, zD,D, |
[V:1]G,/E/B,/G/E/B/ G/e/B/g/e/b/ |
[V:2]z[GB,][GB,] z[B,G][GB,] |
[V:3]zEE zEE |
[V:4]zE,E, zE,E, |
[V:1]=a/b/_a/f/d/B/ A/F/D/B,/A,/B,/ |
[V:2]z[FB,][FB,] z[AB,][AB,] |
[V:3]zFF zFF |
[V:4]zD,D, zD,D, |
[V:1]G,/E/B,/G/E/B/ G/e/B/g/e/b/ |
[V:2]z[B,G][B,G] z[B,G][B,G] |
[V:3]zEE zEE |
[V:4]zE,E, zE,E, |
[V:1]=B/c/B/c/B/c/ d/e/d/e/d/e/ |
[V:2][C2A2]z C2z |
[V:3]E2z A,2z |
[V:4]A,,2z4 |
[V:1]=A/B/A/B/A/B/ d/e/d/e/d/e/ |
[V:2]E2z B,2z |
[V:3]B,2z G,2z |
[V:4]G,,2z4 |
[V:1]=B/c/B/c/=e/f/ ^c/d/c/d/^f/g/ |
[V:2]E2A F2B |
[V:3]A,2z B,2z |
[V:4]z6 |
[V:1]d/<e/g/<a/=e/<f/ =a/<b/a/<b/g//_a3// |
[V:2]GcA F3 |
[V:3]C2D B,3 |
[V:4]z3 D,3 |
[V:1]^f/<g/=e/<=f/d/<_e/ =B/<c/=e/<f/g//a3// |
[V:2]G2z4 |
[V:3]G,A,B, C2z |
[V:4]E,F,G, A,2z |
[V:1]c'zc'//=b//c'//d'// e'e'e' |
[V:2]z2>_G2 GG |
[V:3]z2>C2 CC |
[V:4]z2>=A,2 A,A, |
[V:1]e3 f3 |
[V:2]GBG AFD |
[V:3]B,G,E, D,F,A, |
[V:4]B,B,B, B,,B,,B,, |
[V:1]ez/e/e/e/ e=A/e/e/e/ |
[V:2]E2z =A>AA/A/ |
[V:3]G,2z _G>GG/G/ |
[V:4]C,2z C>CC/C/ |
[V:1]eB/e/e/e/ ec/e/e/e/ |
[V:2]B>BB/B <cc/c/c/ |
[V:3]G>GG/G <_GG/G/G/ |
[V:4]B,>B,B,/B, <=A,A,/A,/A,/ |
[V:1]e/d/g/f/e/d/ e/d/c/B/A/G/ |
[V:2]B2z4 |
[V:3]G2z4 |
[V:4]B,2z4 |
[V:1]FFF/=E//F// cz2 |
[V:2]DDD Dz2 |
[V:3]B,B,B, B,z2 |
[V:4]A,A,A, A,z2 |
[V:1]fff/=e//f// c'zf/e//f// |
[V:2]ddd dzd |
[V:3]AAA AzA |
[V:4]z6 |
[V:1]c'zf/=e//f// bz_e/d//e// |
[V:2]dzd ezG |
[V:3]AzA Gz2 |
[V:4]z4 zC |
[V:1]aaf/e//f// ez2 |
[V:2]ccA/G//A// Gz2 |
[V:3]FFd ez2 |
[V:4]A,A,B, E,z2 |
[V:1]z6 |
[V:2]z6 |
[V:3]z6 |
[V:4]z6 |
[V:1]z4 zB, |
[V:2]z6 |
[V:3]z6 |
[V:4]z6 |
[V:1]EEE/D//E// FzB, |
[V:2][G,2E2]z D2z |
[V:3]B,2z B,2z |
[V:4]E,2z B,,2z |
[V:1]FFF/E//F// GzG/F//G// |
[V:2]D2z E2z |
[V:3]B,2z B,2z |
[V:4]B,,2z E,2z |
[V:1]AzA/G//A// Bze |
[V:2]D2z B,2z |
[V:3]F2z E2z |
[V:4]F,2z G,2z |
[V:1]BBB Bzd/e/ |
[V:2]EEE Ez2 |
[V:3]EEE Ez2 |
[V:4]G,G,G, G,z2 |
[V:1]=BBB BzB/c/ |
[V:2]EEE Ez2 |
[V:3]EEE Ez2 |
[V:4]A,A,A, A,z2 |
[V:1]FF=B/c/ _GGd/e/ |
[V:2]E2z E2z |
[V:3]C2z C2z |
[V:4]=A,2z A,2z |
[V:1]GGd/e/ BBd/e/ |
[V:2]E2z G2z |
[V:3]E2z E2z |
[V:4]B,2z B,2z |
[V:1]gg2 <z2d/e/ |
[V:2]E2z4 |
[V:3]E2z4 |
[V:4]B,2z4 |
[V:1]gba fdB |
[V:2]zGA zFA |
[V:3]zEF zDF |
[V:4]B,2z B,2z |
[V:1]=A/B/c/B/c/d/ eee |
[V:2]zFA GzE |
[V:3]zDF EzE |
[V:4]B,2z E,zE, |
[V:1]gba fdB |
[V:2]GBA FDB, |
[V:3]GBA FDB, |
[V:4]G,B,A, F,D,B,, |
[V:1]=A/B/c/B/c/d/ =B/c/d/c/d/e/ |
[V:2]=A,/B,/C/B,/C/D/ =B,/C/D/C/D/E/ |
[V:3]=A,/B,/C/B,/C/D/ =B,/C/D/C/D/E/ |
[V:4]=A,,/B,,/C,/B,,/C,/D,/ =B,,/C,/D,/C,/D,/E,/ |
[V:1]d/e/f/e/f/g/ f/g/a/g/a/b/ |
[V:2]D/E/F/E/F/G/ F/G/A/G/A/B/ |
[V:3]D/E/F/E/F/G/ F/G/A/G/A/B/ |
[V:4]D,/E,/F,/E,/F,/G,/ F,/G,/A,/G,/A,/B,/ |
[V:1]a/b/c'/b/a/g/ f/e/d/c/B/A/ |
[V:2]A/B/c/B/A/G/ F/E/D/C/B,/A,/ |
[V:3]A/B/c/B/A/G/ F/E/D/C/B,/A,/ |
[V:4]A,/B,/C/B,/A,/G,/ F,/E,/D,/C,/B,,/A,,/ |
[V:1]Gze fed |
[V:2]G,zG AGF |
[V:3]G,zC CB,A, |
[V:4]G,,zC, A,,B,,B,, |
[V:1]egb Bcd |
[V:2]Ezb aaa/g//a// |
[V:3]G,zG FFF/E//F// |
[V:4]E,2z B,2z |
[V:1]egb Bcd |
[V:2]gzg fff/e//f// |
[V:3]EzB AAA/G//A// |
[V:4]E,2z B,2z |
[V:1]ezB Bcd |
[V:2]ezB AAA/G//A// |
[V:3]GzG FFF/E//F// |
[V:4]E,,/G,,/B,,/E,/G,/E,/ B,,2z |
[V:1]egb bc'd' |
[V:2]GzG FFF/E//F// |
[V:3]EzB, A,A,A,/G,//A,// |
[V:4]E,,2z B,,2z |
[V:1]e'z4 z |]
[V:2]E2z4 |]
[V:3]G,2z4 |]
[V:4]E,,2z4 |]

